X:109
T:Jesus Christ Is Risen Today
%%stretchlast false
M:4/4
L:1/4
K:Ab clef=C1
"^iii+"[A,CA] "^I"[A,EAc] "^V¹"[G,EBe] "^iii+"[A,CA] | "^IV¹"[F,DAd] "^IV"[D,Adf] "^IV²"[A,Adf] "^I"[A,Ace] | [A,EAc]/ "^♯iii"[B,EAd]/ "^I¹"[CEAe]/ [CEA]/ "^ii7"[B,FAd]/ [B,DGd]/ "^I"[A,EAc]/ "^IV"[D,FAd]/ | "^I²"[E,EAc] "^V"[E,EGB]/ "^V7"[E,DGB]/ "^iii+"[A,CA]2 | "^IV¹"[F,DAd] "^I"[A,CAe] "^IV"[DAf] "^I¹"[CEAe] | "^ii7"[B,FAd]/ [B,DGd]/ "^I"[A,EAc] "^I²"[E,EAc] "^V"[E,EGB] | "^I"[A,EAc]/ "^♯iii"[B,EAd]/ "^I¹"[CEAe]/ [CEA]/ "^ii7"[B,FAd]/ [B,DGd]/ "^I"[A,EAc]/ "^IV"[D,FAd]/ | "^I²"[E,EAc] "^V"[E,EGB]/ "^V7"[E,DGB]/ "^iii+"[A,CA]2 | "^V"[E,Beg] "^v"[F,Aea]/ "^♭v°¹"[F,A=da]/ "^V¹"[G,Geb] "^V"[EGe]/ "^♯iii°"[DGe]/ | "^I¹"[CAea] "^♯iii"[B,Adb]/ [B,Gdb]/ "^iii+"[Acc']2 | "^V"[EBeg]/ "^v"[FBea]/ "^V¹"[GBeb]/ [GBe]/ "^v"[FBea]/ "^II7²"[FB=da]/ "^V"[EBeg]/ "^I¹"[CAea]/ | "^V²"[B,Beg] "^II"[B,B=df]/ "^II7"[B,A=df]/ "^V"[E,Ge]2 | [EGe]/ "^v"[EAf]/ "^V"[EBg]/ "^♯iii°"[DEGe]/ "^I¹"[CEAa] "^I"[A,EAc]/ "^Imaj7³"[G,EAc]/ | "^IV¹"[F,DAd] "^IV"[D,Adf] "^IV²"[A,Adf] "^I"[A,Ace] | [A,Eca]/ "^V7²"[B,Edg]/ "^I¹"[CEea]/ "^I"[A,Ace]/ "^IV"[DAdf]/ "^vii°¹"[B,Bdg]/ "^I¹"[CEca]/ "^ii¹"[DFBb]/ | "^I²"[Eca] "^V"[E,Eeg]/ "^♯iii°"[E,Edg]/ "^I"[A,Eca]2 |]
